svg/head_check.svg

<svg xmlns="http://www.w3.org/2000/svg" viewBox="0 0 24 24"><path d="M13 3C9.23 3 6.19 5.95 6 9.66l-1.92 2.53c-.24.31 0 .81.42.81H6v3c0 1.11.89 2 2 2h1v3h7v-4.69c2.37-1.12 4-3.51 4-6.31 0-3.86-3.12-7-7-7m-.53 10L9 9.5l1.4-1.41 2.07 2.08L16.6 6 18 7.41z"/></svg>

<?xml version="1.0" encoding="UTF-8"?><!DOCTYPE svg PUBLIC "-//W3C//DTD SVG 1.1//EN" "http://www.w3.org/Graphics/SVG/1.1/DTD/svg11.dtd"><svg xmlns="http://www.w3.org/2000/svg" xmlns:xlink="http://www.w3.org/1999/xlink" version="1.1" id="mdi-head-check" width="24" height="24" viewBox="0 0 24 24"><path d="M13 3C9.23 3 6.19 5.95 6 9.66L4.08 12.19C3.84 12.5 4.08 13 4.5 13H6V16C6 17.11 6.89 18 8 18H9V21H16V16.31C18.37 15.19 20 12.8 20 10C20 6.14 16.88 3 13 3M12.47 13L9 9.5L10.4 8.09L12.47 10.17L16.6 6L18 7.41L12.47 13Z" /></svg>
